X:2
T:Comic Miror. WR1776.02
B:Wm.Randall CDs 1776
Z:vmp.Steve Mansfield 2015
M:2/4
L:1/8
W:Hands across & back again lead down 2 Cu. up again
W:cast off hands across at bott: left hands across at top
W:lead thro' the bottom & thro' the top cast off
Q:1/4=100
K:D
af2d | ge2g | fdBe | dcBA |
af2a | ge2g | fdBc | d2D2 :|
|: afd=c | BGFG | Eg2e | dcBA |
af2d | ce2G | Fd ce | d2D2 :|

